!!!OTL: Alphabet Song
!!!ONM: 98.
**kern
*clefG2
*k[b-]
*F:
*M3/4
*MM144
{4c
4f
4f
=2
4f
4g
4a
=3
4c
4c
4c
=4
4.c
8r}
{4cc
=5
4a
4a
4a
=6
4a
4g
4f
=7
4g
4g
4g
=8
4.g
8r
4r}
=9
{4a
4a
4a
=10
4a
4g
4f
=11
4c
4c
4c
=12
4.c
8r}
{4a
=13
4a
4a
4a
=14
4a
4f
4g
=15
4a
4f
4f
=16
4.f
8r}
=||
{4c
=17
4f
4f
4f
=18
4f
4g
4a
=19
4c
4c
4c
=20
4.c
8r}
4cc
=21
{4a
4a
4a
=22
4a
4g
4f
=23
4g
4g
4g
=24
4.g
8r}
{8a
8a
=25
4a
4a
4a
=26
4a
4g
4f
=27
4c
4c
4c
=28
4.c
8r}
{4a
=29
4a
4a
4a
=30
4a
4f
4g
=31
4a
4f
4f
=32
2f}
==
*-
!!!CNT: Folksongs of Maritime Canada
!!!MRD: 1928///-1932///
!!!OCL: Helen Creighton
!!!YOR: Songs and Ballads from Nova Scotia
!!!PPR: J.M. Dent & Sons, Limited
!!!PPP: Toronto, Canada
!!!PDT: 1932///
!!!reprint: Dover Publications, 1992: ISBN 0-486-21703-5
!!!ENC1: Craig Stuart Sapp (music and bibliographic data)                       
!!!ENC2: Marcus Pearce (phrase markings and key designations)                   
!!!ENC3: Darrell Conklin (phrase markings and key designations)   
!!!END: 2002/04/10/
!!!EEV: 2004/06/05
!!!MPN: Mr. Ben Henneberry
!!!PPG: 210
!!!EFL: 99/152
!!!ARE: Canada; Nova Scotia
!!!verses: 5
!!!VTS: 2950356566
